X:1
T:Title
%%score { ( 1 4 ) | ( 2 3 ) }
L:1/8
Q:1/4=72
M:2/4
K:G
V:1 treble nm="Grand Piano"
V:4 treble 
V:2 treble 
V:3 treble 
V:1
 BB BB/B/ | B/A/[GB]/c/ [Bd]2 | [Ac][GB] [FA][Fd] | [GB][FA] z [FA] | BB/B/ BB | %5
w: Rossini * * * *|||||
 B/A/[GB]/c/ [Bd]2 | [Ac][GB] [FA].[FB] |[M:3/8] G3 |[M:1/8] G |[M:2/4] AA AB/A/ |[M:3/8] G2 D | %11
w: ||||||
[M:1/8] G |[M:2/4] GG [GB][Gd] | [FA]3 G | AA AB/A/ | G2 DG | GG [GB][Gd] | [FA]4 | BB BB/B/ | %19
w: ||||||||
 B/A/[GB]/c/ [Bd]2 | [Ac][GB] [FA][Fd] | [GB][FA] z [FA] | BB/B/ BB | B/A/[GB]/c/ [Bd]2 | %24
w: |||||
 [Ac][GB] [FA].[FB] |[M:11/8] G3 z z z z z z z2 |] %26
w: ||
V:2
 [G,G][G,G] [G,G][G,G]/[G,G]/ | G/.FA/[K:bass] G,2 | D,D, D,D, | G,D, B,,D, | %4
 [G,G][G,G]/[G,G]/ [G,G][G,G] | G/.FA/[K:bass] G,2 | D,D, .D,>[K:treble]A |[M:3/8] G,3 | %8
[M:1/8][K:bass] [G,B,] |[M:2/4] [D,C][D,C] [D,C][D,C] |[M:3/8] [G,B,]3 |[M:1/8] G, | %12
[M:2/4] G,G, G,B,, | D,3 [G,B,] | [D,C][D,C] [D,C][D,C] | [G,B,]3 G, | G,G, G,B,, | D,4 | %18
 [G,G][G,G] [G,G][G,G]/[G,G]/ | G/.FA/[K:bass] G,2 | D,D, D,D, | G,D, B,,D, | %22
 [G,G][G,G]/[G,G]/ [G,G][G,G] | G/.FA/[K:bass] G,2 | D,D, .D,>[K:treble]A | %25
[M:11/8] G,3 z z z z z z z2 |] %26
V:3
 x4 | G,G,[K:bass] z2 | x4 | x4 | x4 | G,G,[K:bass] z2 | z2 z D,[K:treble] |[M:3/8] x3 | %8
[M:1/8][K:bass] x |[M:2/4] x4 |[M:3/8] x3 |[M:1/8] x |[M:2/4] x4 | x4 | x4 | x4 | x4 | x4 | x4 | %19
 G,G,[K:bass] z2 | x4 | x4 | x4 | G,G,[K:bass] z2 | z2 z D,[K:treble] |[M:11/8] x11 |] %26
V:4
 x4 | x4 | x4 | z2 G2 | x4 | x4 | x4 |[M:3/8] x3 |[M:1/8] x |[M:2/4] x4 |[M:3/8] x3 |[M:1/8] x | %12
[M:2/4] x4 | x4 | x4 | x4 | x4 | x4 | x4 | x4 | x4 | z2 G2 | x4 | x4 | x4 |[M:11/8] x11 |] %26

